X: 1541
T: Angelfire
R: reel
M: 4/4
K: Adorian
A2 Ac BAGE|EGAB cBAG|A2 BA c2 d2|e3 =f edcB|
A2 Ac BAGE|EGAB cBAG|B2 Bc BAGE|edcB A2:|
ABcd e2 ef|gfed e4|edcB cBAG|cBAG A4|
ABcd e2 ef|gfed e3 e|e2 d2 c2 B2|cBAG A2:|

